X: 24
T: Origin of the Bi'jikiwuck' [cattle herb medicine]
N: Derived from ojibwa24.krn
C: Chippewa Songs ~ 1910
O: Red Wing, Minnesota, U.S.A
N: Chippewa Music by Frances Densmore, 1910
Z: transcribed to **kern format by Paul von Hippel and Daniel T. Shanahan
L: 1/8
M: 3/4
Q: 1/4=108
K: Gb clef=bass
%%linebreak <none>
D D [I:setbarnb 1]| 
E2E D D D | 
D2A,2D D | 
D2D C A, A, | 
A,2G,2G, G, | 
G,2D,2C C | 
C2C __A, G, G, | 
G,2D,2G, G, | 
G,2G, _F, D, D, | 
D,2B,,2 |]  



